TileServer und Tiles/svg/9/28_18.svg

<?xml version='1.0' encoding='UTF-8' standalone='no'?>
<svg xmlns="http://www.w3.org/2000/svg" width="497pt" viewBox="0 0 497 279" xmlns:xlink="http://www.w3.org/1999/xlink" height="279pt">
 <defs style="stroke:none;" overflow="visible">
  <path id="glyph0-6" d="M 4.015625 -5.359375 L 4.984375 -5.359375 L 2.6875 -2.78125 L 5.171875 0 L 4.15625 0 L 1.734375 -2.71875 L 1.734375 0 L 0.84375 0 L 0.84375 -5.359375 L 1.734375 -5.359375 L 1.734375 -2.765625 Z M 4.015625 -5.359375 "/>
  <path id="glyph0-5" d="M 3 0.09375 C 2.53125 0.09375 2.109375 0 1.734375 -0.1875 C 1.367188 -0.382812 1.078125 -0.6875 0.859375 -1.09375 C 0.648438 -1.5 0.546875 -2.019531 0.546875 -2.65625 C 0.546875 -3.3125 0.65625 -3.84375 0.875 -4.25 C 1.09375 -4.664062 1.390625 -4.96875 1.765625 -5.15625 C 2.148438 -5.351562 2.582031 -5.453125 3.0625 -5.453125 C 3.332031 -5.453125 3.59375 -5.425781 3.84375 -5.375 C 4.101562 -5.320312 4.3125 -5.253906 4.46875 -5.171875 L 4.203125 -4.4375 C 4.035156 -4.5 3.84375 -4.554688 3.625 -4.609375 C 3.414062 -4.660156 3.222656 -4.6875 3.046875 -4.6875 C 1.984375 -4.6875 1.453125 -4.007812 1.453125 -2.65625 C 1.453125 -2.007812 1.582031 -1.515625 1.84375 -1.171875 C 2.101562 -0.828125 2.484375 -0.65625 2.984375 -0.65625 C 3.285156 -0.65625 3.546875 -0.6875 3.765625 -0.75 C 3.984375 -0.8125 4.1875 -0.882812 4.375 -0.96875 L 4.375 -0.1875 C 4.195312 -0.09375 4 -0.0234375 3.78125 0.015625 C 3.5625 0.0664062 3.300781 0.09375 3 0.09375 Z M 3 0.09375 "/>
  <path id="glyph0-4" d="M 1.734375 -5.359375 L 1.734375 -3.125 L 4.640625 -3.125 L 4.640625 -5.359375 L 5.515625 -5.359375 L 5.515625 0 L 4.640625 0 L 4.640625 -2.390625 L 1.734375 -2.390625 L 1.734375 0 L 0.84375 0 L 0.84375 -5.359375 Z M 1.734375 -5.359375 "/>
  <path id="glyph0-3" d="M 1.6875 -5.359375 L 1.6875 -2.09375 C 1.6875 -2.007812 1.679688 -1.882812 1.671875 -1.71875 C 1.660156 -1.5625 1.648438 -1.40625 1.640625 -1.25 C 1.628906 -1.09375 1.625 -0.96875 1.625 -0.875 L 4.484375 -5.359375 L 5.5625 -5.359375 L 5.5625 0 L 4.75 0 L 4.75 -3.15625 C 4.75 -3.257812 4.75 -3.398438 4.75 -3.578125 C 4.757812 -3.753906 4.765625 -3.925781 4.765625 -4.09375 C 4.773438 -4.257812 4.785156 -4.390625 4.796875 -4.484375 L 1.9375 0 L 0.84375 0 L 0.84375 -5.359375 Z M 1.6875 -5.359375 "/>
  <path id="glyph0-2" d="M 1.625 -5.359375 L 1.625 -3.40625 C 1.625 -2.789062 1.96875 -2.484375 2.65625 -2.484375 C 2.988281 -2.484375 3.289062 -2.535156 3.5625 -2.640625 C 3.832031 -2.742188 4.113281 -2.882812 4.40625 -3.0625 L 4.40625 -5.359375 L 5.28125 -5.359375 L 5.28125 0 L 4.40625 0 L 4.40625 -2.390625 C 4.101562 -2.191406 3.804688 -2.035156 3.515625 -1.921875 C 3.222656 -1.816406 2.875 -1.765625 2.46875 -1.765625 C 1.925781 -1.765625 1.5 -1.90625 1.1875 -2.1875 C 0.882812 -2.476562 0.734375 -2.863281 0.734375 -3.34375 L 0.734375 -5.359375 Z M 1.625 -5.359375 "/>
  <path id="glyph0-1" d="M 5.453125 0 L 4.59375 -2.203125 L 1.765625 -2.203125 L 0.90625 0 L 0 0 L 2.796875 -7.171875 L 3.59375 -7.171875 L 6.375 0 Z M 4.3125 -3.015625 L 3.515625 -5.171875 C 3.492188 -5.222656 3.457031 -5.316406 3.40625 -5.453125 C 3.363281 -5.597656 3.320312 -5.742188 3.28125 -5.890625 C 3.238281 -6.046875 3.207031 -6.160156 3.1875 -6.234375 C 3.132812 -6.035156 3.078125 -5.835938 3.015625 -5.640625 C 2.960938 -5.441406 2.914062 -5.285156 2.875 -5.171875 L 2.0625 -3.015625 Z M 4.3125 -3.015625 "/>
  <path id="glyph0-0" d="M 0.9375 0 L 0.9375 -7.140625 L 5.046875 -7.140625 L 5.046875 0 Z M 1.453125 -0.515625 L 4.546875 -0.515625 L 4.546875 -6.625 L 1.453125 -6.625 Z M 1.453125 -0.515625 "/>
 </defs>
 <image width="497" xlink:href="svg/9/28_18.jpg" height="279"/>
 <g>
  <path d="M 320.855469 107.53125 L 319.996094 105.328125 L 317.167969 105.328125 L 316.308594 107.53125 L 315.402344 107.53125 L 318.199219 100.359375 L 318.996094 100.359375 L 321.777344 107.53125 Z M 319.714844 104.515625 L 318.917969 102.359375 C 318.894531 102.308594 318.859375 102.214844 318.808594 102.078125 C 318.765625 101.933594 318.722656 101.789062 318.683594 101.640625 C 318.640625 101.484375 318.609375 101.371094 318.589844 101.296875 C 318.535156 101.496094 318.480469 101.695312 318.417969 101.890625 C 318.363281 102.089844 318.316406 102.246094 318.277344 102.359375 L 317.464844 104.515625 Z M 319.714844 104.515625 " transform=" rotate(  340 333.457 104.531) " style="fill:none;stroke-width:3;stroke-linecap:butt;stroke-linejoin:round;stroke:rgb(100%,100%,100%);stroke-opacity:0.6;stroke-miterlimit:10;"/>
  <path d="M 323.21875 102.171875 L 323.21875 104.125 C 323.21875 104.742188 323.5625 105.046875 324.25 105.046875 C 324.582031 105.046875 324.882812 104.996094 325.15625 104.890625 C 325.425781 104.789062 325.707031 104.648438 326 104.46875 L 326 102.171875 L 326.875 102.171875 L 326.875 107.53125 L 326 107.53125 L 326 105.140625 C 325.695312 105.339844 325.398438 105.496094 325.109375 105.609375 C 324.816406 105.714844 324.46875 105.765625 324.0625 105.765625 C 323.519531 105.765625 323.09375 105.625 322.78125 105.34375 C 322.476562 105.054688 322.328125 104.667969 322.328125 104.1875 L 322.328125 102.171875 Z M 323.21875 102.171875 " transform=" rotate(  340 333.457 104.531) " style="fill:none;stroke-width:3;stroke-linecap:butt;stroke-linejoin:round;stroke:rgb(100%,100%,100%);stroke-opacity:0.6;stroke-miterlimit:10;"/>
  <path d="M 329.410156 102.171875 L 329.410156 105.4375 C 329.410156 105.523438 329.402344 105.648438 329.394531 105.8125 C 329.382812 105.96875 329.371094 106.125 329.363281 106.28125 C 329.351562 106.4375 329.347656 106.5625 329.347656 106.65625 L 332.207031 102.171875 L 333.285156 102.171875 L 333.285156 107.53125 L 332.472656 107.53125 L 332.472656 104.375 C 332.472656 104.273438 332.472656 104.132812 332.472656 103.953125 C 332.480469 103.777344 332.488281 103.605469 332.488281 103.4375 C 332.496094 103.273438 332.507812 103.140625 332.519531 103.046875 L 329.660156 107.53125 L 328.566406 107.53125 L 328.566406 102.171875 Z M 329.410156 102.171875 " transform=" rotate(  340 333.457 104.531) " style="fill:none;stroke-width:3;stroke-linecap:butt;stroke-linejoin:round;stroke:rgb(100%,100%,100%);stroke-opacity:0.6;stroke-miterlimit:10;"/>
  <path d="M 335.886719 102.171875 L 335.886719 104.40625 L 338.792969 104.40625 L 338.792969 102.171875 L 339.667969 102.171875 L 339.667969 107.53125 L 338.792969 107.53125 L 338.792969 105.140625 L 335.886719 105.140625 L 335.886719 107.53125 L 334.996094 107.53125 L 334.996094 102.171875 Z M 335.886719 102.171875 " transform=" rotate(  340 333.457 104.531) " style="fill:none;stroke-width:3;stroke-linecap:butt;stroke-linejoin:round;stroke:rgb(100%,100%,100%);stroke-opacity:0.6;stroke-miterlimit:10;"/>
  <path d="M 343.523438 107.625 C 343.054688 107.625 342.632812 107.53125 342.257812 107.34375 C 341.890625 107.148438 341.601562 106.84375 341.382812 106.4375 C 341.171875 106.03125 341.070312 105.511719 341.070312 104.875 C 341.070312 104.21875 341.179688 103.6875 341.398438 103.28125 C 341.617188 102.867188 341.914062 102.5625 342.289062 102.375 C 342.671875 102.179688 343.105469 102.078125 343.585938 102.078125 C 343.855469 102.078125 344.117188 102.105469 344.367188 102.15625 C 344.625 102.210938 344.835938 102.277344 344.992188 102.359375 L 344.726562 103.09375 C 344.558594 103.03125 344.367188 102.976562 344.148438 102.921875 C 343.9375 102.871094 343.746094 102.84375 343.570312 102.84375 C 342.507812 102.84375 341.976562 103.523438 341.976562 104.875 C 341.976562 105.523438 342.105469 106.015625 342.367188 106.359375 C 342.625 106.703125 343.007812 106.875 343.507812 106.875 C 343.808594 106.875 344.070312 106.84375 344.289062 106.78125 C 344.507812 106.71875 344.710938 106.648438 344.898438 106.5625 L 344.898438 107.34375 C 344.71875 107.4375 344.523438 107.507812 344.304688 107.546875 C 344.085938 107.597656 343.824219 107.625 343.523438 107.625 Z M 343.523438 107.625 " transform=" rotate(  340 333.457 104.531) " style="fill:none;stroke-width:3;stroke-linecap:butt;stroke-linejoin:round;stroke:rgb(100%,100%,100%);stroke-opacity:0.6;stroke-miterlimit:10;"/>
  <path d="M 349.339844 102.171875 L 350.308594 102.171875 L 348.011719 104.75 L 350.496094 107.53125 L 349.480469 107.53125 L 347.058594 104.8125 L 347.058594 107.53125 L 346.167969 107.53125 L 346.167969 102.171875 L 347.058594 102.171875 L 347.058594 104.765625 Z M 349.339844 102.171875 " transform=" rotate(  340 333.457 104.531) " style="fill:none;stroke-width:3;stroke-linecap:butt;stroke-linejoin:round;stroke:rgb(100%,100%,100%);stroke-opacity:0.6;stroke-miterlimit:10;"/>
  <g transform=" rotate(  340 333.457 104.531) " style="fill:rgb(13.333333%,13.333333%,13.333333%);fill-opacity:1;">
   <use xlink:href="#glyph0-1" y="107.531388" x="315.402339"/>
   <use xlink:href="#glyph0-2" y="107.531388" x="321.592339"/>
   <use xlink:href="#glyph0-3" y="107.531388" x="327.722339"/>
   <use xlink:href="#glyph0-4" y="107.531388" x="334.152339"/>
   <use xlink:href="#glyph0-5" y="107.531388" x="340.522339"/>
   <use xlink:href="#glyph0-6" y="107.531388" x="345.322339"/>
  </g>
 </g>
</svg>

<svg xmlns="http://www.w3.org/2000/svg" xmlns:xlink="http://www.w3.org/1999/xlink" viewBox="0 0 497 279"> <defs overflow="visible" style="stroke:none">  <path id="f" d="M4-5.4h1L2.7-2.8 5.2 0h-1L1.7-2.7V0H.8v-5.4h1v2.6Zm0 0"/>  <path id="e" d="M3 0c-.5 0-.9 0-1.3-.1-.3-.3-.6-.6-.7-.9-.4-.5-.5-1-.5-1.7 0-.6.2-1.1.5-1.5 0-.6.4-.8.8-1.1.2-.1.8-.2 1.2-.2l.8.1.7.2-.3.8-.6-.2H3c-1-.1-1.5.6-1.5 1.9 0 .7 0 1 .3 1.4.3.5.7.6 1.2.6h.8l.6-.3v.8a2 2 0 0 1-.6.2H3Zm0 0"/>  <path id="d" d="M1.7-5.4V-3h3v-2.4h.7V0h-.8v-2.4H1.7V0H.8v-5.4Zm0 0"/>  <path id="c" d="M1.7-5.4v3.7a18.9 18.9 0 0 0 0 .7l2.7-4.4h1.1V0h-.7v-4.1l.1-.4-3 4.5H1v-5.4Zm0 0"/>  <path id="b" d="M1.6-5.4v2c0 .6.4 1 1 1l1.1-.3a5 5 0 0 0 .7-.4v-2.3h.9V0h-.9v-2.4a5 5 0 0 1-.9.5 3 3 0 0 1-1 .1c-.6 0-1-.1-1.3-.4-.3-.3-.5-.7-.5-1.1v-2Zm0 0"/>  <path id="a" d="m5.5 0-1-2.2H1.9L.9 0H0l2.8-7.2h.8L6.4 0ZM4.3-3l-.8-2.2v-.3l-.3-.4v-.3l-.2.6a8 8 0 0 1 0 .4L2-3Zm0 0"/>  <path d="M1 0v-7.1h4V0Zm.4-.5h3.1v-6.1h-3Zm.1 0"/> </defs> <image xlink:href="svg/9/28_18.jpg" width="497" height="279"/> <path d="m320.9 107.5-.9-2.2h-2.8l-.9 2.2h-.9l2.8-7.1h.8l2.8 7.1Zm-1.2-3-.7-2.1v-.4l-.4-.4v-.3l-.2.6a8 8 0 0 1-.1.5l-.8 2.1Zm3.5-2.3v2c0 .4.4.8 1 .8h1.1a5 5 0 0 0 .7-.5v-2.3h.9v5.3h-.9v-2.4a5 5 0 0 1-.9.5 3 3 0 0 1-1 .2c-.6 0-1.1-.2-1.3-.5-.3-.2-.5-.6-.5-1.1v-2Zm6.2 0v3.6a18.9 18.9 0 0 0 0 .9l2.7-4.5h1.1v5.3h-.6V103l-2.9 4.5h-1.1v-5.3Zm6.5 0v2.2h2.9v-2.2h.9v5.3h-1v-2.4H336v2.4h-1v-5.3Zm7.6 5.4c-.4 0-.9 0-1.2-.3-.4-.2-.7-.5-1-.9l-.1-1.4c-.2-.8-.2-1.3.2-1.7.2-.4.5-.7.9-1l1.3-.1h.8l.6.3-.3.5-.6-.1h-.5c-1-.1-1.6.5-1.6 1.9 0 .7 0 1.2.4 1.6.2.3.6.5 1.1.5l.8-.1.6-.2v.7a2 2 0 0 1-.6.2l-.8.1Zm5.8-5.4h1l-2.3 2.5 2.5 2.8h-1l-2.5-2.7v2.7h-1v-5.3h1.2v2.6Zm0 0" style="fill:none;stroke-width:3;stroke-linecap:butt;stroke-linejoin:round;stroke:#fff;stroke-opacity:.6;stroke-miterlimit:10" transform=" rotate(  340 333.457 104.531) "/> <g style="fill:#222;fill-opacity:1" transform=" rotate(  340 333.457 104.531) ">  <use xlink:href="#a" x="315.4" y="107.5"/>  <use xlink:href="#b" x="321.6" y="107.5"/>  <use xlink:href="#c" x="327.7" y="107.5"/>  <use xlink:href="#d" x="334.2" y="107.5"/>  <use xlink:href="#e" x="340.5" y="107.5"/>  <use xlink:href="#f" x="345.3" y="107.5"/> </g></svg>
